icons/night/php.svg

<svg width="16" height="16" viewBox="0 0 16 16" fill="none" xmlns="http://www.w3.org/2000/svg">
<path d="M15 7.00001C15 4.00001 11.5 4.00001 11.5 4.00001H8.89C9.38 5.18001 8 7.00001 8 7.00001H7.5C7.68607 6.76703 7.85326 6.51958 8 6.26001C8.2164 5.9301 8.36345 5.55963 8.43222 5.17111C8.50098 4.7826 8.49002 4.38416 8.4 4.00001V3.92001C8.15 3.42001 7.53 3.05001 6.29 3.01001H6C2.68 3.00001 1.82 5.20001 1.6 6.34001C1.54111 6.55537 1.50755 6.77687 1.5 7.00001V12C1.58171 12.0757 1.67783 12.1343 1.78263 12.1721C1.88743 12.2098 1.99876 12.2262 2.11 12.22C2.41846 12.2074 2.7212 12.1326 3 12V10.5C2.99591 10.3019 3.03192 10.105 3.10586 9.92119C3.17979 9.73735 3.29013 9.57036 3.43024 9.43025C3.57035 9.29014 3.73734 9.1798 3.92118 9.10587C4.10501 9.03193 4.3019 8.99593 4.5 9.00001V13C4.96474 13.1516 5.4512 13.2259 5.94 13.22C6.46784 13.2216 6.99319 13.1476 7.5 13V11H10.5V13C10.9647 13.1516 11.4512 13.2259 11.94 13.22C12.4678 13.2216 12.9932 13.1476 13.5 13V9.00001C13.9031 8.23192 14.0767 7.36406 14 6.50001C14.0111 6.06664 13.9149 5.63723 13.72 5.25001C14.1924 5.71337 14.4713 6.33889 14.5 7.00001H15ZM4 6.50001C4 6.40112 4.02932 6.30445 4.08427 6.22223C4.13921 6.14 4.2173 6.07592 4.30866 6.03807C4.40002 6.00023 4.50055 5.99033 4.59755 6.00962C4.69454 6.02891 4.78363 6.07653 4.85355 6.14646C4.92348 6.21639 4.9711 6.30548 4.99039 6.40247C5.00969 6.49946 4.99978 6.59999 4.96194 6.69135C4.9241 6.78272 4.86001 6.86081 4.77779 6.91575C4.69556 6.97069 4.59889 7.00001 4.5 7.00001C4.36739 7.00001 4.24021 6.94733 4.14645 6.85357C4.05268 6.7598 4 6.63262 4 6.50001Z" fill="#7AA2F7"/>
</svg>

<svg xmlns="http://www.w3.org/2000/svg" data-name="Calque 1" viewBox="0 0 16 16"><path
    d="M15 7c0-3-3.5-3-3.5-3H8.89C9.38 5.18 8 7 8 7h-.5a5.61 5.61 0 0 0 .5-.74A2.91 2.91 0 0 0 8.4 4v-.08c-.25-.5-.87-.87-2.11-.91H6C2.68 3 1.82 5.2 1.6 6.34a2.87 2.87 0 0 0-.1.66v5a.83.83 0 0 0 .61.22A2.29 2.29 0 0 0 3 12v-1.5A1.47 1.47 0 0 1 4.5 9v4a4.47 4.47 0 0 0 1.44.22A5.52 5.52 0 0 0 7.5 13v-2h3v2a4.47 4.47 0 0 0 1.44.22A5.52 5.52 0 0 0 13.5 13V9a4.52 4.52 0 0 0 .5-2.5 2.63 2.63 0 0 0-.28-1.25A2.61 2.61 0 0 1 14.5 7ZM4 6.5a.5.5 0 1 1 .5.5.5.5 0 0 1-.5-.5Z"
    style="fill:#7aa2f7"
  /></svg>
